!!!!SEGMENT:Souban.krn
!!!OTL: 双ばん
!!!OPR:Eiga Banso Kyokusyu,jidai-geki,kouhen
!!!YOY:1928
!!!ONB: Yamiyorantou
**kern
*I"Part 1
*clefG2
*k[f#]
*G:
*M2/4
=1
8r
8gg
8ggL
8ff#J
=2
8eeL
8ee
8ff#
8ccJ
=3
8ccL
16eeL
16ff#JJ
16BLL
16cc
16cc
16ccJJ
=4
8bL
8aJ
4r
=5
8gL
8a
8a
8bJ
=6
16ccLL
16ccJ
8ccJ
8ccL
8ccJ
=7
8ccL
8b
8a
8bJ
=8
16ccLL
16ccJ
8ccJ
8ccL
8ccJ
=9
8ccL
8bJ
8aL
8bJ
=10
16ddLL
16ddJ
8ddJ
8ddL
8ddJ
=11
8r
16eeLL
16ddJJ
4b
=12
8r
8ggL
8ff#
8eeJ
=13
4cc
8.bL
16ggJk
=14
8bbL
8ggJ
8ff#L
8eeJ
=15
8ccL
8bJ
8aL
8aJ
=16
8r
8bL
8f#
8f#J
=17
8r
8a
8eL
8eJ
=18
8r
8dL
8e
8eJ
=19
8r
8aL
8b
8bJ
=20
8r
8aL
8fn
8fJ
=21
8r
8a
8eL
8eJ
=22
8r
8dL
8e
8eJ
=23
8r
8e
4e
==
*-
!!!ENC: Yukiko Yoden
!!!END: 2023/06/10
